X: 25961
T: Maxime LeBlanc
R: reel
M: 4/4
K: Dmixolydian
|:A,2DE F2DF|GBAG F2DB,|A,D=FG E3F|GECE EDDB,|
A,DDE F2DF|GBAG F2DB,|A,D=FG E2CE|GECE EDD2:|
|:A2d2- dedc|Acde fded|ABcd cAGc|Eccd ecdc|
Add^c ded=c|Acde fded|ABcd cAGE|CDEG F2D2:|

